X:1801
T:Johnny Groat's House
%
P:Johnny Groat's House
C:Niel Gow
R:Reel (8x32)
B:RSCDS 18-1
Z:Anselm Lingnau <anselm@strathspey.org>
M:2/2
L:1/8
K:C
A|"C"Gccd e2dc|"G"BGdc BcdB|"C"Gccd e2dc|Gc"G7"Bd "C"ecc A|
  "C"Gccd e2dc|"G"BGdc BcdB|"C"Gccd e2dc|GcBc "G"dB"C"c||
e|"C"gfeg "Dm"fagf|"C"ecgc "G"Bcdf|"C"gfeg "G"dagf|"C"ge"Dm"fd "G"BG"C"ce|
  "C"gfeg "G"fagf|"C"ecgc "G"Bcdf|"C"ecBc GcEc|GE"G7"FD B,G,"C"C|]
%
P: The Caithness Reel
C: 
R: Reel
%Q: 232
B: RSCDS 18-1(II)
F: http://www.math.mun.ca/~bshawyer/reels/CaithnessReel.abc
Z: Bruce Shawyer
K: Eb
M: 4/4
L: 1/8
ed | c2 BG FE CD | E2 EG BG Be | c2 BG FE Cc |1 ec eG F2 :|2 ec dB c2 ||
cd | ef gf e2 ed | cB ce f2 fg | ef gf e2 ed | cB GB c2 ||
cd | ef gf e2 ed | cB ce f2 fg | eg fg ef de | cB GB c2 |] 
